!! 00000] TT[WS
!!!OTL: Chule gede qianqian xiale gedemi
!!!ARE: Asia, China, Shanxi Linxian
!! Ethnic Group: Han
!! WI, 149
!!!SCT: J0180
!!!YEM: Copyright 1995, estate of Helmut Schaffrath.
**kern
*ICvox
*Ivox
!! Mixed meters:  3/8; 4/8
*M4/8
*k[f#]
*G:
{8dd
8dd
8dd
16dd
16gg
=1
16dd
16ee
16dd
16b
16a
16g
8a
=2
8a
8dd
8dd
16a
16dd
=3
2g}
=4
*M3/8
{8a
8dd
16a
16dd
=5
16a
16g
16f#
16e
8d
=6
8g
16a
16b
16f#
16e
=7
8e
4.d}
==
!!!AGN: Xiaodiao. Qingge
!!!ONB: ESAC (Essen Associative Code) Database: CHINA
!!!AMT: irregular
!!!AIN: vox
!!!EED: Helmut Schaffrath
!!!EEV: 1.0
*-
